src/img/icons/users.svg

<svg width="32" height="32" viewBox="0 0 32 32" fill="none" xmlns="http://www.w3.org/2000/svg">
<path d="M2 25.6845V22.9382C2 22.2236 2.18443 21.5894 2.55329 21.0358C2.92193 20.4821 3.4304 20.0561 4.0787 19.7577C5.49986 19.1122 6.83787 18.6254 8.09273 18.2973C9.34759 17.9695 10.7399 17.8056 12.2696 17.8056C13.7991 17.8056 15.1876 17.9695 16.4349 18.2973C17.682 18.6254 19.0191 19.1122 20.4462 19.7577C21.0886 20.0561 21.5965 20.4821 21.9699 21.0358C22.3435 21.5894 22.5304 22.2236 22.5304 22.9382V25.6845H2ZM24.9341 25.6845V22.9085C24.9341 21.7971 24.6718 20.8344 24.1471 20.0205C23.6222 19.2064 22.9201 18.5296 22.0407 17.9901C23.1562 18.1514 24.2158 18.3802 25.2195 18.6765C26.223 18.9728 27.0948 19.312 27.8351 19.6941C28.5023 20.0618 29.0299 20.521 29.418 21.0717C29.806 21.6224 30 22.2346 30 22.9085V25.6845H24.9341ZM12.2696 15.2472C10.9493 15.2472 9.84785 14.8059 8.96527 13.9234C8.08269 13.0408 7.6414 11.9394 7.6414 10.6193C7.6414 9.299 8.08269 8.19903 8.96527 7.31942C9.84785 6.43981 10.9493 6 12.2696 6C13.5897 6 14.6896 6.43981 15.5692 7.31942C16.4488 8.19903 16.8886 9.299 16.8886 10.6193C16.8886 11.9394 16.4488 13.0408 15.5692 13.9234C14.6896 14.8059 13.5897 15.2472 12.2696 15.2472ZM23.4163 10.6193C23.4163 11.9394 22.9764 13.0408 22.0968 13.9234C21.2172 14.8059 20.1162 15.2472 18.7938 15.2472C18.6385 15.2472 18.4623 15.2343 18.2652 15.2086C18.0681 15.1828 17.8923 15.1442 17.7379 15.0929C18.2439 14.5212 18.6295 13.8546 18.8948 13.0929C19.1601 12.3312 19.2927 11.5076 19.2927 10.6221C19.2927 9.7363 19.1557 8.92672 18.8818 8.19333C18.6076 7.45994 18.2263 6.7773 17.7379 6.14542C17.9005 6.0998 18.0763 6.06421 18.2652 6.03866C18.4543 6.01289 18.6301 6 18.7925 6C20.1158 6 21.2172 6.43981 22.0968 7.31942C22.9764 8.19903 23.4163 9.299 23.4163 10.6193ZM3.71942 23.9648H20.8106V22.9382C20.8106 22.5995 20.7174 22.2863 20.5311 21.9986C20.3449 21.7107 20.0701 21.4759 19.7068 21.2941C18.3768 20.6547 17.1491 20.2001 16.0236 19.9302C14.8983 19.6603 13.647 19.5254 12.2696 19.5254C10.892 19.5254 9.63821 19.6603 8.50813 19.9302C7.37804 20.2001 6.14805 20.6547 4.81814 21.2941C4.45475 21.4759 4.18078 21.7107 3.99624 21.9986C3.81169 22.2863 3.71942 22.5995 3.71942 22.9382V23.9648ZM12.2652 13.5278C13.0857 13.5278 13.7748 13.2489 14.3326 12.6912C14.8903 12.1334 15.1692 11.4442 15.1692 10.6234C15.1692 9.80291 14.8903 9.11377 14.3326 8.55603C13.7748 7.99829 13.0857 7.71942 12.2652 7.71942C11.4444 7.71942 10.7552 7.99829 10.1974 8.55603C9.63992 9.11377 9.36116 9.80291 9.36116 10.6234C9.36116 11.4442 9.63992 12.1334 10.1974 12.6912C10.7552 13.2489 11.4444 13.5278 12.2652 13.5278Z" fill="#131212"/>
</svg>

<svg xmlns="http://www.w3.org/2000/svg" viewBox="0 0 32 32">
  <path fill="currentColor" d="M2 25.684v-2.746c0-.714.184-1.349.553-1.902.369-.554.877-.98 1.526-1.278 1.42-.646 2.759-1.133 4.014-1.46 1.255-.328 2.647-.492 4.177-.492 1.53 0 2.918.163 4.165.491 1.247.328 2.584.815 4.011 1.46.643.3 1.15.725 1.524 1.279.373.553.56 1.188.56 1.902v2.747H2Zm22.934 0v-2.776c0-1.11-.262-2.074-.787-2.888a6.511 6.511 0 0 0-2.106-2.03c1.115.161 2.175.39 3.178.687 1.004.296 1.876.635 2.616 1.017.667.368 1.195.827 1.583 1.378.388.55.582 1.163.582 1.837v2.776h-5.066ZM12.27 15.248c-1.32 0-2.422-.441-3.305-1.324-.882-.882-1.324-1.984-1.324-3.304 0-1.32.442-2.42 1.324-3.3C9.848 6.44 10.95 6 12.27 6s2.42.44 3.3 1.32c.879.879 1.319 1.979 1.319 3.3 0 1.32-.44 2.42-1.32 3.303-.88.883-1.98 1.324-3.3 1.324Zm11.146-4.628c0 1.32-.44 2.422-1.32 3.304-.879.883-1.98 1.324-3.302 1.324-.155 0-.332-.013-.529-.038a2.851 2.851 0 0 1-.527-.116 5.92 5.92 0 0 0 1.157-2 7.462 7.462 0 0 0 .398-2.47c0-.887-.137-1.696-.411-2.43a7.8 7.8 0 0 0-1.144-2.048c.163-.045.338-.08.527-.106.19-.026.365-.039.527-.039 1.324 0 2.425.44 3.305 1.32.88.879 1.32 1.979 1.32 3.3ZM3.72 23.965h17.092v-1.027c0-.338-.094-.652-.28-.94-.186-.287-.46-.522-.824-.704-1.33-.64-2.558-1.094-3.683-1.364-1.126-.27-2.377-.405-3.754-.405-1.378 0-2.632.135-3.762.405s-2.36.725-3.69 1.364c-.363.182-.637.417-.822.705-.184.287-.277.6-.277.94v1.026Zm8.546-10.437c.82 0 1.51-.28 2.068-.837.557-.558.836-1.247.836-2.068 0-.82-.279-1.51-.836-2.067-.558-.558-1.247-.837-2.068-.837-.82 0-1.51.28-2.068.837-.557.558-.836 1.247-.836 2.067 0 .821.279 1.51.836 2.068.558.558 1.247.837 2.068.837Z"/>
</svg>
